src/epub/images/titlepage.svg

<?xml version="1.0" encoding="UTF-8"?>
<svg xmlns="http://www.w3.org/2000/svg" xmlns:se="https://standardebooks.org/vocab/1.0" version="1.1" viewBox="0 0 1400 340" se:generated-from="2d0a4169d651d7b4ba4b463e37c44a62e24e348c">
	<path d="m 173.19809,52.807016 0,77.192984 22.36257,0 c 21.23977,0 38.92398,-16.09357 38.92398,-38.643276 0,-22.45614 -17.77778,-38.549708 -38.92398,-38.549708 l -22.36257,0 z m 17.59064,61.473684 0,-45.754385 2.71345,0 c 13.09942,0 21.98831,10.011696 21.98831,22.923977 -0.0936,12.912278 -8.98246,22.830408 -21.98831,22.830408 l -2.71345,0 z"/>
	<path d="m 286.48172,52.807016 -16.2807,0 L 239.04312,130 l 18.90059,0 5.7076,-15.4386 29.38012,0 5.7076,15.4386 18.90058,0 -31.15789,-77.192984 z m 0.5614,46.31579 -17.40351,0 8.60819,-22.45614 0.18714,0 8.60818,22.45614 z"/>
	<path d="m 341.65862,130 13.84795,0 32.37427,-77.192984 -19.83626,0 -19.46199,50.713454 -19.46198,-50.713454 -19.83626,0 L 341.65862,130 Z"/>
	<path d="m 413.39108,52.807016 -17.59065,0 0,77.192984 17.59065,0 0,-77.192984 z"/>
	<path d="m 429.67471,52.807016 0,77.192984 22.36258,0 c 21.23976,0 38.92398,-16.09357 38.92398,-38.643276 0,-22.45614 -17.77778,-38.549708 -38.92398,-38.549708 l -22.36258,0 z m 17.59065,61.473684 0,-45.754385 2.71345,0 c 13.09941,0 21.9883,10.011696 21.9883,22.923977 -0.0936,12.912278 -8.98245,22.830408 -21.9883,22.830408 l -2.71345,0 z"/>
	<path d="m 572.49048,114.09357 c -17.68421,0 -25.45029,-12.35088 -25.45029,-22.736846 0,-10.292397 7.76608,-22.643275 25.45029,-22.643275 8.98246,0 15.1579,4.77193 15.1579,4.77193 l 7.48538,-14.97076 c 0,0 -8.60819,-7.111112 -25.35673,-7.111112 -21.89473,0 -41.82456,17.964913 -41.82456,40.140352 0,22.081871 20.02339,39.859651 41.82456,39.859651 16.74854,0 25.35673,-7.11111 25.35673,-7.11111 l -7.48538,-14.97076 c 0,0 -6.17544,4.77193 -15.1579,4.77193 z"/>
	<path d="m 603.49343,91.356724 c 0,22.549706 16.09356,40.046786 38.92397,40.046786 22.17544,0 38.83041,-17.49708 38.83041,-40.046786 0,-22.549708 -17.40351,-39.953217 -38.83041,-39.953217 -21.23976,0 -38.92397,17.403509 -38.92397,39.953217 z m 18.99415,0 c 0,-11.508772 6.36257,-23.017544 19.92982,-23.017544 13.66082,0 19.83626,11.508772 19.83626,23.017544 0,11.508776 -5.80117,23.017546 -19.83626,23.017546 -14.40935,0 -19.92982,-11.50877 -19.92982,-23.017546 z"/>
	<path d="m 694.00949,52.807016 0,77.192984 17.59065,0 0,-28.63158 10.5731,0 c 15.06432,0 26.38596,-8.888888 26.38596,-24.795322 0,-16 -11.32164,-23.766082 -26.38596,-23.766082 l -28.16375,0 z m 17.59065,34.526317 0,-20.491229 4.95906,0 c 6.92398,0 13.47368,2.339181 13.47368,10.292398 0,7.859649 -6.5497,10.198831 -13.47368,10.198831 l -4.95906,0 z"/>
	<path d="m 761.32675,52.807016 0,77.192984 17.59065,0 0,-28.63158 10.5731,0 c 15.06432,0 26.38596,-8.888888 26.38596,-24.795322 0,-16 -11.32164,-23.766082 -26.38596,-23.766082 l -28.16375,0 z m 17.59065,34.526317 0,-20.491229 4.95906,0 c 6.92398,0 13.47369,2.339181 13.47369,10.292398 0,7.859649 -6.54971,10.198831 -13.47369,10.198831 l -4.95906,0 z"/>
	<path d="m 872.80776,52.807016 -44.16375,0 0,77.192984 44.16375,0 0,-15.4386 -26.5731,0 0,-15.532161 25.45029,0 0,-15.438597 -25.45029,0 0,-15.345029 26.5731,0 0,-15.438597 z"/>
	<path d="m 887.92032,52.807016 0,77.192984 17.59064,0 0,-30.502925 L 929.08991,130 l 22.36257,0 -26.5731,-31.906433 c 9.4503,-2.994152 15.81287,-10.760234 15.81287,-22.362574 0,-15.157895 -10.8538,-22.923977 -25.16959,-22.923977 l -27.60234,0 z m 17.59064,34.245615 0,-20.210527 2.05848,0 c 6.64328,0 14.59649,0.467836 14.59649,10.105263 0,9.637428 -7.95321,10.105264 -14.59649,10.105264 l -2.05848,0 z"/>
	<path d="m 1004.6206,52.807016 -44.63155,0 0,77.192984 17.59064,0 0,-30.970761 24.98241,0 0,-15.438597 -24.98241,0 0,-15.345029 27.04091,0 0,-15.438597 z"/>
	<path d="m 1035.5768,52.807016 -17.5907,0 0,77.192984 17.5907,0 0,-77.192984 z"/>
	<path d="m 1096.0241,52.807016 -44.1637,0 0,77.192984 44.1637,0 0,-15.4386 -26.5731,0 0,-15.532161 25.4503,0 0,-15.438597 -25.4503,0 0,-15.345029 26.5731,0 0,-15.438597 z"/>
	<path d="m 1128.7273,52.807016 -17.5906,0 0,77.192984 44.1637,0 0,-15.4386 -26.5731,0 0,-61.754384 z"/>
	<path d="m 1168.951,52.807016 0,77.192984 22.3626,0 c 21.2398,0 38.924,-16.09357 38.924,-38.643276 0,-22.45614 -17.7778,-38.549708 -38.924,-38.549708 l -22.3626,0 z m 17.5907,61.473684 0,-45.754385 2.7134,0 c 13.0994,0 21.9883,10.011696 21.9883,22.923977 -0.094,12.912278 -8.9824,22.830408 -21.9883,22.830408 l -2.7134,0 z"/>
	<path d="m 358.94024,278.07018 c -13.26315,0 -19.08771,-9.26316 -19.08771,-17.05264 0,-7.71929 5.82456,-16.98245 19.08771,-16.98245 6.73685,0 11.36843,3.57895 11.36843,3.57895 l 5.61403,-11.22807 c 0,0 -6.45614,-5.33334 -19.01754,-5.33334 -16.42106,0 -31.36842,13.47369 -31.36842,30.10527 0,16.5614 15.01754,29.89473 31.36842,29.89473 12.5614,0 19.01754,-5.33333 19.01754,-5.33333 l -5.61403,-11.22807 c 0,0 -4.63158,3.57895 -11.36843,3.57895 z"/>
	<path d="m 399.23191,266.77193 18.66667,0 0,23.22807 13.19298,0 0,-57.89474 -13.19298,0 0,23.08772 -18.66667,0 0,-23.08772 -13.19298,0 0,57.89474 13.19298,0 0,-23.22807 z"/>
	<path d="m 473.89639,232.10526 -12.21053,0 L 438.31744,290 l 14.17544,0 4.2807,-11.57895 22.03509,0 4.2807,11.57895 14.17544,0 -23.36842,-57.89474 z m 0.42105,34.73685 -13.05263,0 6.45614,-16.84211 0.14035,0 6.45614,16.84211 z"/>
	<path d="m 504.4545,232.10526 0,57.89474 13.19298,0 0,-22.87719 17.68421,22.87719 16.77193,0 -19.92982,-23.92982 c 7.08772,-2.24562 11.85965,-8.07018 11.85965,-16.77193 0,-11.36842 -8.14035,-17.19299 -18.8772,-17.19299 l -20.70175,0 z m 13.19298,25.68421 0,-15.15789 1.54386,0 c 4.98246,0 10.94737,0.35088 10.94737,7.57895 0,7.22807 -5.96491,7.57894 -10.94737,7.57894 l -1.54386,0 z"/>
	<path d="m 572.94901,232.10526 -13.19298,0 0,57.89474 33.12281,0 0,-11.57895 -19.92983,0 0,-46.31579 z"/>
	<path d="m 637.48958,232.10526 -33.1228,0 0,57.89474 33.1228,0 0,-11.57895 -19.92982,0 0,-11.64912 19.08772,0 0,-11.57895 -19.08772,0 0,-11.50877 19.92982,0 0,-11.57895 z"/>
	<path d="m 671.40736,231.05263 c -9.33334,0 -18.8772,6.8772 -18.8772,17.68421 0,6.03509 4.07018,11.4386 11.01755,14.8772 6.87719,3.43859 13.05263,5.33333 13.05263,9.54385 0,5.40351 -5.47369,5.68422 -8.35088,5.68422 -6.45614,0 -14.17544,-6.52632 -14.17544,-6.52632 l -6.59649,11.08772 c 0,0 8.21053,7.64912 21.75439,7.64912 11.29824,0 21.82456,-4.8421 21.82456,-18.66666 0,-7.57895 -7.08772,-13.05264 -13.54386,-15.78948 -6.59649,-2.80702 -12.07018,-5.12281 -12.07018,-8.35088 0,-3.15789 2.38597,-5.19298 6.8772,-5.19298 5.96491,0 11.71929,4 11.71929,4 l 5.33334,-10.52631 c 0,0 -7.4386,-5.47369 -17.96491,-5.47369 z"/>
	<path d="m 726.41173,232.10526 0,57.89474 16.77193,0 c 15.92982,0 29.19298,-12.07018 29.19298,-28.98246 0,-16.8421 -13.33333,-28.91228 -29.19298,-28.91228 l -16.77193,0 z m 13.19298,46.10527 0,-34.31579 2.03509,0 c 9.82456,0 16.49123,7.50877 16.49123,17.19298 -0.0702,9.68421 -6.73684,17.12281 -16.49123,17.12281 l -2.03509,0 z"/>
	<path d="m 796.41392,232.10526 -13.19299,0 0,57.89474 13.19299,0 0,-57.89474 z"/>
	<path d="m 838.49069,278.07018 c -13.26316,0 -19.08772,-9.26316 -19.08772,-17.05264 0,-7.71929 5.82456,-16.98245 19.08772,-16.98245 6.73684,0 11.36842,3.57895 11.36842,3.57895 l 5.61404,-11.22807 c 0,0 -6.45614,-5.33334 -19.01755,-5.33334 -16.42105,0 -31.36842,13.47369 -31.36842,30.10527 0,16.5614 15.01754,29.89473 31.36842,29.89473 12.56141,0 19.01755,-5.33333 19.01755,-5.33333 l -5.61404,-11.22807 c 0,0 -4.63158,3.57895 -11.36842,3.57895 z"/>
	<path d="m 918.2911,290 -26.94737,-30.45614 23.29824,-27.4386 -16,0 -19.85965,23.64913 0,-23.64913 -13.19298,0 0,57.89474 13.19298,0 0,-24.5614 21.33334,24.5614 18.17544,0 z"/>
	<path d="m 958.94793,232.10526 -33.12281,0 0,57.89474 33.12281,0 0,-11.57895 -19.92983,0 0,-11.64912 19.08772,0 0,-11.57895 -19.08772,0 0,-11.50877 19.92983,0 0,-11.57895 z"/>
	<path d="m 984.72532,254.07018 0.14035,0 23.01753,35.92982 13.193,0 0,-57.89474 -13.193,0 0,35.92983 -0.1403,0 -23.01758,-35.92983 -13.19298,0 0,57.89474 13.19298,0 0,-35.92982 z"/>
	<path d="m 1054.4721,231.05263 c -9.3334,0 -18.8772,6.8772 -18.8772,17.68421 0,6.03509 4.0701,11.4386 11.0175,14.8772 6.8772,3.43859 13.0526,5.33333 13.0526,9.54385 0,5.40351 -5.4736,5.68422 -8.3508,5.68422 -6.4562,0 -14.1755,-6.52632 -14.1755,-6.52632 l -6.5965,11.08772 c 0,0 8.2106,7.64912 21.7544,7.64912 11.2983,0 21.8246,-4.8421 21.8246,-18.66666 0,-7.57895 -7.0877,-13.05264 -13.5439,-15.78948 -6.5965,-2.80702 -12.0702,-5.12281 -12.0702,-8.35088 0,-3.15789 2.386,-5.19298 6.8772,-5.19298 5.9649,0 11.7193,4 11.7193,4 l 5.3334,-10.52631 c 0,0 -7.4386,-5.47369 -17.9649,-5.47369 z"/>
</svg>

<?xml version="1.0" encoding="UTF-8"?>
<svg xmlns="http://www.w3.org/2000/svg" xmlns:se="https://standardebooks.org/vocab/1.0" version="1.1" viewBox="0 0 1400 340" se:generated-from="9f69c56940cd912a920abeeff64e4c1057658319">
	<path d="M 173.10672,52.807016 173.10672,130 195.46929,130 C 216.70906,130 234.39327,113.90643 234.39327,91.356724 234.39327,68.900584 216.61549,52.807016 195.46929,52.807016 L 173.10672,52.807016 Z M 190.69736,114.2807 190.69736,68.526315 193.41081,68.526315 C 206.51023,68.526315 215.39911,78.538011 215.39911,91.450292 215.30555,104.36257 206.41666,114.2807 193.41081,114.2807 L 190.69736,114.2807 Z"/>
	<path d="M 286.39034,52.807016 270.10964,52.807016 238.95175,130 257.85233,130 263.55993,114.5614 292.94005,114.5614 298.64765,130 317.54824,130 286.39034,52.807016 Z M 286.95175,99.122806 269.54824,99.122806 278.15643,76.666666 278.34356,76.666666 286.95175,99.122806 Z"/>
	<path d="M 341.75,130 355.59795,130 387.97222,52.807016 368.13596,52.807016 348.67397,103.52047 329.21199,52.807016 309.37573,52.807016 341.75,130 Z"/>
	<path d="M 413.48246,52.807016 395.89181,52.807016 395.89181,130 413.48246,130 413.48246,52.807016 Z"/>
	<path d="M 429.76608,52.807016 429.76608,130 452.12865,130 C 473.36842,130 491.05263,113.90643 491.05263,91.356724 491.05263,68.900584 473.27485,52.807016 452.12865,52.807016 L 429.76608,52.807016 Z M 447.35672,114.2807 447.35672,68.526315 450.07017,68.526315 C 463.16959,68.526315 472.05848,78.538011 472.05848,91.450292 471.96491,104.36257 463.07602,114.2807 450.07017,114.2807 L 447.35672,114.2807 Z"/>
	<path d="M 572.58188,114.09357 C 554.89767,114.09357 547.13159,101.74269 547.13159,91.356724 547.13159,81.064327 554.89767,68.713449 572.58188,68.713449 581.56434,68.713449 587.73978,73.485379 587.73978,73.485379 L 595.22516,58.514619 C 595.22516,58.514619 586.61697,51.403507 569.86843,51.403507 547.97369,51.403507 528.04387,69.36842 528.04387,91.543859 528.04387,113.62573 548.06726,131.40351 569.86843,131.40351 586.61697,131.40351 595.22516,124.2924 595.22516,124.2924 L 587.73978,109.32164 C 587.73978,109.32164 581.56434,114.09357 572.58188,114.09357 Z"/>
	<path d="M 603.58479,91.356724 C 603.58479,113.90643 619.67836,131.40351 642.50877,131.40351 664.68421,131.40351 681.33918,113.90643 681.33918,91.356724 681.33918,68.807016 663.93567,51.403507 642.50877,51.403507 621.269,51.403507 603.58479,68.807016 603.58479,91.356724 Z M 622.57894,91.356724 C 622.57894,79.847952 628.94152,68.33918 642.50877,68.33918 656.16959,68.33918 662.34503,79.847952 662.34503,91.356724 662.34503,102.8655 656.54386,114.37427 642.50877,114.37427 628.09941,114.37427 622.57894,102.8655 622.57894,91.356724 Z"/>
	<path d="M 694.10086,52.807016 694.10086,130 711.6915,130 711.6915,101.36842 722.2646,101.36842 C 737.32893,101.36842 748.65057,92.479532 748.65057,76.573098 748.65057,60.573098 737.32893,52.807016 722.2646,52.807016 L 694.10086,52.807016 Z M 711.6915,87.333333 711.6915,66.842104 716.65057,66.842104 C 723.57454,66.842104 730.12425,69.181285 730.12425,77.134502 730.12425,84.994151 723.57454,87.333333 716.65057,87.333333 L 711.6915,87.333333 Z"/>
	<path d="M 761.41812,52.807016 761.41812,130 779.00876,130 779.00876,101.36842 789.58186,101.36842 C 804.64619,101.36842 815.96783,92.479532 815.96783,76.573098 815.96783,60.573098 804.64619,52.807016 789.58186,52.807016 L 761.41812,52.807016 Z M 779.00876,87.333333 779.00876,66.842104 783.96783,66.842104 C 790.8918,66.842104 797.44151,69.181285 797.44151,77.134502 797.44151,84.994151 790.8918,87.333333 783.96783,87.333333 L 779.00876,87.333333 Z"/>
	<path d="M 872.89912,52.807016 828.73538,52.807016 828.73538,130 872.89912,130 872.89912,114.5614 846.32602,114.5614 846.32602,99.029239 871.77632,99.029239 871.77632,83.590642 846.32602,83.590642 846.32602,68.245613 872.89912,68.245613 872.89912,52.807016 Z"/>
	<path d="M 888.01168,52.807016 888.01168,130 905.60233,130 905.60233,99.497075 929.18128,130 951.54385,130 924.97075,98.093567 C 934.42104,95.099415 940.78362,87.333333 940.78362,75.730993 940.78362,60.573098 929.92981,52.807016 915.61402,52.807016 L 888.01168,52.807016 Z M 905.60233,87.052631 905.60233,66.842104 907.66081,66.842104 C 914.30408,66.842104 922.2573,67.30994 922.2573,76.947367 922.2573,86.584795 914.30408,87.052631 907.66081,87.052631 L 905.60233,87.052631 Z"/>
	<path d="M 1004.712,52.807016 960.08041,52.807016 960.08041,130 977.67105,130 977.67105,99.029239 1002.6535,99.029239 1002.6535,83.590642 977.67105,83.590642 977.67105,68.245613 1004.712,68.245613 1004.712,52.807016 Z"/>
	<path d="M 1035.6681,52.807016 1018.0775,52.807016 1018.0775,130 1035.6681,130 1035.6681,52.807016 Z"/>
	<path d="M 1096.1155,52.807016 1051.9517,52.807016 1051.9517,130 1096.1155,130 1096.1155,114.5614 1069.5424,114.5614 1069.5424,99.029239 1094.9927,99.029239 1094.9927,83.590642 1069.5424,83.590642 1069.5424,68.245613 1096.1155,68.245613 1096.1155,52.807016 Z"/>
	<path d="M 1128.8188,52.807016 1111.2281,52.807016 1111.2281,130 1155.3919,130 1155.3919,114.5614 1128.8188,114.5614 1128.8188,52.807016 Z"/>
	<path d="M 1169.0424,52.807016 1169.0424,130 1191.405,130 C 1212.6447,130 1230.3289,113.90643 1230.3289,91.356724 1230.3289,68.900584 1212.5512,52.807016 1191.405,52.807016 L 1169.0424,52.807016 Z M 1186.633,114.2807 1186.633,68.526315 1189.3465,68.526315 C 1202.4459,68.526315 1211.3348,78.538011 1211.3348,91.450292 1211.2412,104.36257 1202.3523,114.2807 1189.3465,114.2807 L 1186.633,114.2807 Z"/>
	<path d="M 358.94024,278.07018 C 345.67709,278.07018 339.85253,268.80702 339.85253,261.01754 339.85253,253.29825 345.67709,244.03509 358.94024,244.03509 365.67709,244.03509 370.30867,247.61404 370.30867,247.61404 L 375.9227,236.38597 C 375.9227,236.38597 369.46656,231.05263 356.90516,231.05263 340.4841,231.05263 325.53674,244.52632 325.53674,261.1579 325.53674,277.7193 340.55428,291.05263 356.90516,291.05263 369.46656,291.05263 375.9227,285.7193 375.9227,285.7193 L 370.30867,274.49123 C 370.30867,274.49123 365.67709,278.07018 358.94024,278.07018 Z"/>
	<path d="M 399.23191,266.77193 417.89858,266.77193 417.89858,290 431.09156,290 431.09156,232.10526 417.89858,232.10526 417.89858,255.19298 399.23191,255.19298 399.23191,232.10526 386.03893,232.10526 386.03893,290 399.23191,290 399.23191,266.77193 Z"/>
	<path d="M 473.89639,232.10526 461.68586,232.10526 438.31744,290 452.49288,290 456.77358,278.42105 478.80867,278.42105 483.08937,290 497.26481,290 473.89639,232.10526 Z M 474.31744,266.84211 461.26481,266.84211 467.72095,250 467.8613,250 474.31744,266.84211 Z"/>
	<path d="M 504.4545,232.10526 504.4545,290 517.64748,290 517.64748,267.12281 535.33169,290 552.10362,290 532.1738,266.07018 C 539.26152,263.82456 544.03345,258 544.03345,249.29825 544.03345,237.92983 535.8931,232.10526 525.15625,232.10526 L 504.4545,232.10526 Z M 517.64748,257.78947 517.64748,242.63158 519.19134,242.63158 C 524.1738,242.63158 530.13871,242.98246 530.13871,250.21053 530.13871,257.4386 524.1738,257.78947 519.19134,257.78947 L 517.64748,257.78947 Z"/>
	<path d="M 572.94901,232.10526 559.75603,232.10526 559.75603,290 592.87884,290 592.87884,278.42105 572.94901,278.42105 572.94901,232.10526 Z"/>
	<path d="M 637.48958,232.10526 604.36678,232.10526 604.36678,290 637.48958,290 637.48958,278.42105 617.55976,278.42105 617.55976,266.77193 636.64748,266.77193 636.64748,255.19298 617.55976,255.19298 617.55976,243.68421 637.48958,243.68421 637.48958,232.10526 Z"/>
	<path d="M 671.40736,231.05263 C 662.07402,231.05263 652.53016,237.92983 652.53016,248.73684 652.53016,254.77193 656.60034,260.17544 663.54771,263.61404 670.4249,267.05263 676.60034,268.94737 676.60034,273.15789 676.60034,278.5614 671.12665,278.84211 668.24946,278.84211 661.79332,278.84211 654.07402,272.31579 654.07402,272.31579 L 647.47753,283.40351 C 647.47753,283.40351 655.68806,291.05263 669.23192,291.05263 680.53016,291.05263 691.05648,286.21053 691.05648,272.38597 691.05648,264.80702 683.96876,259.33333 677.51262,256.59649 670.91613,253.78947 665.44244,251.47368 665.44244,248.24561 665.44244,245.08772 667.82841,243.05263 672.31964,243.05263 678.28455,243.05263 684.03893,247.05263 684.03893,247.05263 L 689.37227,236.52632 C 689.37227,236.52632 681.93367,231.05263 671.40736,231.05263 Z"/>
	<path d="M 726.41173,232.10526 726.41173,290 743.18366,290 C 759.11348,290 772.37664,277.92982 772.37664,261.01754 772.37664,244.17544 759.04331,232.10526 743.18366,232.10526 L 726.41173,232.10526 Z M 739.60471,278.21053 739.60471,243.89474 741.6398,243.89474 C 751.46436,243.89474 758.13103,251.40351 758.13103,261.08772 758.06085,270.77193 751.39419,278.21053 741.6398,278.21053 L 739.60471,278.21053 Z"/>
	<path d="M 796.41392,232.10526 783.22093,232.10526 783.22093,290 796.41392,290 796.41392,232.10526 Z"/>
	<path d="M 838.49069,278.07018 C 825.22753,278.07018 819.40297,268.80702 819.40297,261.01754 819.40297,253.29825 825.22753,244.03509 838.49069,244.03509 845.22753,244.03509 849.85911,247.61404 849.85911,247.61404 L 855.47315,236.38597 C 855.47315,236.38597 849.01701,231.05263 836.4556,231.05263 820.03455,231.05263 805.08718,244.52632 805.08718,261.1579 805.08718,277.7193 820.10472,291.05263 836.4556,291.05263 849.01701,291.05263 855.47315,285.7193 855.47315,285.7193 L 849.85911,274.49123 C 849.85911,274.49123 845.22753,278.07018 838.49069,278.07018 Z"/>
	<path d="M 918.2911,290 891.34373,259.54386 914.64197,232.10526 898.64197,232.10526 878.78232,255.75439 878.78232,232.10526 865.58934,232.10526 865.58934,290 878.78232,290 878.78232,265.4386 900.11566,290 918.2911,290 Z"/>
	<path d="M 958.94793,232.10526 925.82512,232.10526 925.82512,290 958.94793,290 958.94793,278.42105 939.0181,278.42105 939.0181,266.77193 958.10582,266.77193 958.10582,255.19298 939.0181,255.19298 939.0181,243.68421 958.94793,243.68421 958.94793,232.10526 Z"/>
	<path d="M 984.72532,254.07018 984.86567,254.07018 1007.8832,290 1021.0762,290 1021.0762,232.10526 1007.8832,232.10526 1007.8832,268.03509 1007.7429,268.03509 984.72532,232.10526 971.53234,232.10526 971.53234,290 984.72532,290 984.72532,254.07018 Z"/>
	<path d="M 1054.4721,231.05263 C 1045.1387,231.05263 1035.5949,237.92983 1035.5949,248.73684 1035.5949,254.77193 1039.665,260.17544 1046.6124,263.61404 1053.4896,267.05263 1059.665,268.94737 1059.665,273.15789 1059.665,278.5614 1054.1914,278.84211 1051.3142,278.84211 1044.858,278.84211 1037.1387,272.31579 1037.1387,272.31579 L 1030.5422,283.40351 C 1030.5422,283.40351 1038.7528,291.05263 1052.2966,291.05263 1063.5949,291.05263 1074.1212,286.21053 1074.1212,272.38597 1074.1212,264.80702 1067.0335,259.33333 1060.5773,256.59649 1053.9808,253.78947 1048.5071,251.47368 1048.5071,248.24561 1048.5071,245.08772 1050.8931,243.05263 1055.3843,243.05263 1061.3492,243.05263 1067.1036,247.05263 1067.1036,247.05263 L 1072.437,236.52632 C 1072.437,236.52632 1064.9984,231.05263 1054.4721,231.05263 Z"/>
</svg>
